src/assets/icons/settings.svg

<svg width="20" height="20" viewBox="0 0 20 20" fill="none" xmlns="http://www.w3.org/2000/svg">
<g clip-path="url(#clip0_58_82)">
<path fill-rule="evenodd" clip-rule="evenodd" d="M9.99479 6.66536C9.11074 6.66536 8.26289 7.01655 7.63777 7.64167C7.01265 8.2668 6.66146 9.11464 6.66146 9.9987C6.66146 10.8828 7.01265 11.7306 7.63777 12.3557C8.26289 12.9808 9.11074 13.332 9.99479 13.332C10.8788 13.332 11.7267 12.9808 12.3518 12.3557C12.9769 11.7306 13.3281 10.8828 13.3281 9.9987C13.3281 9.11464 12.9769 8.2668 12.3518 7.64167C11.7267 7.01655 10.8788 6.66536 9.99479 6.66536ZM8.81628 8.82019C9.12884 8.50763 9.55276 8.33203 9.99479 8.33203C10.4368 8.33203 10.8607 8.50763 11.1733 8.82019C11.4859 9.13275 11.6615 9.55667 11.6615 9.9987C11.6615 10.4407 11.4859 10.8646 11.1733 11.1772C10.8607 11.4898 10.4368 11.6654 9.99479 11.6654C9.55276 11.6654 9.12884 11.4898 8.81628 11.1772C8.50372 10.8646 8.32812 10.4407 8.32812 9.9987C8.32812 9.55667 8.50372 9.13275 8.81628 8.82019Z" fill="#D87558"/>
<path fill-rule="evenodd" clip-rule="evenodd" d="M9.14562 0.832031C8.76708 0.832031 8.4361 1.08717 8.33974 1.45324L7.91744 3.05757L6.57574 3.62316L5.5487 2.70943C5.21894 2.41606 4.71763 2.43068 4.40554 2.74278L2.73887 4.40944C2.43695 4.71136 2.41208 5.19263 2.68126 5.52407L3.58137 6.63232L3.02941 7.99026L1.472 8.35385C1.09489 8.44189 0.828125 8.77811 0.828125 9.16536V10.832C0.828125 11.2078 1.07961 11.5371 1.44214 11.636L3.05187 12.0751L3.61899 13.4204L2.70617 14.4441C2.41216 14.7738 2.42651 15.2756 2.73887 15.588L4.40554 17.2546C4.70786 17.5569 5.18994 17.5814 5.52133 17.3113L6.6292 16.4082L7.95375 16.953L8.35349 18.5361C8.44693 18.9061 8.7798 19.1654 9.16146 19.1654H10.8281C11.2096 19.1654 11.5424 18.9063 11.636 18.5365L12.0367 16.9527L13.4056 16.3858C13.5434 16.5013 13.7014 16.6369 13.8586 16.7738C14.0148 16.9099 14.16 17.038 14.2663 17.1323C14.3193 17.1794 14.3625 17.2179 14.3924 17.2446L14.4377 17.2851C14.7672 17.5807 15.271 17.5677 15.584 17.2546L17.2507 15.588C17.5574 15.2812 17.5776 14.7905 17.297 14.4597L16.3893 13.3893L16.951 12.0325L18.5377 11.6202C18.905 11.5248 19.1615 11.1932 19.1615 10.8137V9.16536C19.1615 8.78426 18.9029 8.45172 18.5336 8.35776L16.9567 7.95657L16.3964 6.60315L17.2979 5.53666C17.5776 5.20578 17.5571 4.71579 17.2507 4.40944L15.584 2.74278C15.2765 2.43518 14.784 2.41593 14.4533 2.69857L13.3947 3.60343L11.9936 3.02736L11.5799 1.4535C11.4836 1.0873 11.1526 0.832031 10.774 0.832031H9.14562ZM15.5294 14.9522L14.9593 15.5223L14.9531 15.5169C14.6453 15.2489 14.2489 14.9098 14.0253 14.75C13.7913 14.5827 13.4875 14.5479 13.2217 14.658L11.0126 15.573C10.7694 15.6737 10.5881 15.8833 10.5236 16.1384L10.1794 17.4987H9.81052L9.46693 16.138C9.40229 15.882 9.22016 15.6718 8.97598 15.5714L6.80431 14.678C6.52153 14.5617 6.19776 14.6096 5.96075 14.8028L5.05174 15.5438L4.47389 14.9659L5.21341 14.1367C5.4275 13.8966 5.4843 13.5547 5.35935 13.2583L4.43018 11.0542C4.33077 10.8183 4.12851 10.6413 3.88161 10.5739L2.49479 10.1956V9.82656L3.82841 9.51521C4.09187 9.4537 4.30908 9.26812 4.41095 9.01749L5.31095 6.80333C5.42542 6.52172 5.37746 6.20012 5.18582 5.96416L4.44872 5.05661L5.02819 4.47714L5.86088 5.21796C6.10094 5.43154 6.44241 5.48807 6.7385 5.36326L8.94266 4.43409C9.1809 4.33366 9.35903 4.12835 9.42484 3.87832L9.78799 2.4987H10.1314L10.4872 3.85222C10.5536 4.10487 10.7346 4.31176 10.9762 4.41109L13.2321 5.33859C13.5213 5.4575 13.8527 5.4045 14.0904 5.20132L14.9505 4.4662L15.5303 5.04604L14.7959 5.91491C14.5946 6.15301 14.5431 6.48354 14.6623 6.7716L15.5765 8.97994C15.677 9.2228 15.8863 9.40399 16.141 9.4688L17.4948 9.81323V10.1692L16.1302 10.5238C15.8773 10.5895 15.6698 10.7701 15.5698 11.0116L14.6548 13.2216C14.5354 13.5101 14.5873 13.8412 14.7892 14.0793L15.5294 14.9522Z" fill="#D87558"/>
</g>
<defs>
<clipPath id="clip0_58_82">
<rect width="20" height="20" fill="white"/>
</clipPath>
</defs>
</svg>

<svg xmlns="http://www.w3.org/2000/svg" width="20" height="20" fill="none"><g fill="#D87558" fill-rule="evenodd" clip-path="url(#a)" clip-rule="evenodd"><path d="M9.995 6.665a3.333 3.333 0 1 0 0 6.667 3.333 3.333 0 0 0 0-6.667M8.816 8.82a1.667 1.667 0 1 1 2.357 2.357A1.667 1.667 0 0 1 8.816 8.82"/><path d="M9.146.832a.83.83 0 0 0-.806.621l-.423 1.605-1.341.565-1.027-.914a.833.833 0 0 0-1.143.034L2.739 4.409a.833.833 0 0 0-.058 1.115l.9 1.108L3.03 7.99l-1.557.364a.83.83 0 0 0-.644.811v1.667c0 .376.252.705.614.804l1.61.44.567 1.344-.913 1.024a.833.833 0 0 0 .033 1.144l1.667 1.667a.833.833 0 0 0 1.115.056l1.108-.903 1.325.545.4 1.583c.093.37.426.63.807.63h1.667c.382 0 .714-.26.808-.63l.4-1.583 1.37-.567a33 33 0 0 1 .86.746l.126.113.046.04a.834.834 0 0 0 1.146-.03l1.667-1.667a.833.833 0 0 0 .046-1.128l-.908-1.07.562-1.357 1.587-.413a.83.83 0 0 0 .624-.806V9.165a.83.83 0 0 0-.628-.807l-1.577-.401-.56-1.354.9-1.066c.28-.331.26-.821-.046-1.128l-1.667-1.666a.833.833 0 0 0-1.13-.044l-1.06.904-1.4-.576-.414-1.574a.83.83 0 0 0-.806-.621zm6.383 14.12-.57.57-.006-.005a16 16 0 0 0-.928-.767.83.83 0 0 0-.803-.092l-2.21.915a.83.83 0 0 0-.488.565l-.345 1.36h-.368l-.344-1.36a.83.83 0 0 0-.491-.567l-2.172-.893a.83.83 0 0 0-.843.125l-.91.74-.577-.577.74-.83a.83.83 0 0 0 .145-.878l-.929-2.204a.83.83 0 0 0-.548-.48l-1.387-.378v-.37l1.333-.31a.83.83 0 0 0 .583-.499l.9-2.214a.83.83 0 0 0-.125-.839l-.737-.907.58-.58.832.741c.24.214.581.27.878.145l2.204-.929a.83.83 0 0 0 .482-.556l.363-1.38h.343l.356 1.354c.067.253.248.46.49.56l2.255.927c.29.118.62.065.858-.138l.86-.735.58.58-.734.869a.83.83 0 0 0-.134.857l.914 2.208c.101.243.31.424.565.489l1.354.344v.356l-1.365.355a.83.83 0 0 0-.56.488l-.915 2.21a.83.83 0 0 0 .134.857z"/></g><defs><clipPath id="a"><path fill="#fff" d="M0 0h20v20H0z"/></clipPath></defs></svg>
